X: 1214
T: Karanfil Oylum Oylum
C: (Anonim)
O: Turkey
F: http://compmusic.upf.edu/node/140
N: hicaz--turku--aksak--karanfil_oylum_oylum--
N: makam= hicaz
N: form= turku
N: usul= aksak = 9/8
M: 9/8
L: 1/16
K: C _7/8B ^f ^c 
Q: 1/4=144
%%MIDI tuningsystem comma53
ABcd cBBA A4 {z}A2{c}BA G2 | {z}AB cdcB BAA4{z}.A2 .A2.A2  | 
w:  ARANAĞME  |   | 
{z}ABcd cBBA A4 {z}A2{c}BA G2 | {z}AB cdcB BAA4{z}AB cde2  | 
w:   |   | 
{z}c2d2 e2e2 e4 =f3e d2 | {z}e2 =f2e2 d2c4{z}d2 cBA2  | \
w:  Ka ran fil  oy lum  oy *  lum    |  Ge li yor  sel vi  boy *  *  lum    | 
{z}c2d2 e2e2 e4 =f3e d2 | 
w:  Ka ran fil  oy lum  oy *  lum    | 
{z}e2 =f2e2 d2c4{z}d2 cBA2  | {z}d2d2 d2d2 d3c B3A A2 | \
w:  Ge li yor  sel vi  boy *  *  lum    |  Sel vi  boy lum  ge *  lin *  ce    | 
{z}z2 ddd2 dcB3AB3AG2  | 
w:  Şen_ o lur  be *  nim  *  gön *  lüm    | 
{z}ABcd cBBA A4 {z}A2{c}BA G2 | {z}AB cdcB BAA8-A2  | 
w:  Vay  *  be nim_ e *  fen *  dim   E *  fen *  dim   |  serv_ *  i  *  bü *  len *  dim    | 
{z}ABcd cBBA A4 {z}A2{c}BA G2 | {z}AB cdcB BAA8-A2  | 
w:  Vay  *  be nim_ e *  fen *  dim   E *  fen *  dim   |  serv_ *  i  *  bü *  len *  dim    | 
{z}ABcd cBBA A4 {z}A2{c}BA G2 | {z}AB cdcB BAA4{z}.A2 .A2.A2  | 
w:  ARANAĞME  |   | 
{z}ABcd cBBA A4 {z}A2{c}BA G2 | {z}AB cdcB BAA4{z}AB cde2  | 
w:   |   | 
{z}c2d2 e2e2 e4 =f3e d2 | {z}e2 =f2e2 d2c4{z}d2 cBA2  | \
w:  Ka ran fil  oy lum  oy *  lum    |  Ge li yor  sel vi  boy *  *  lum    | 
{z}c2d2 e2e2 e4 =f3e d2 | 
w:  Ka ran fil  oy lum  oy *  lum    | 
{z}e2 =f2e2 d2c4{z}d2 cBA2  | {z}d2d2 d2d2 d3c B3A A2 | \
w:  Ge li yor  sel vi  boy *  *  lum    |  Sel vi  boy lum  ge *  lin *  ce    | 
{z}z2 ddd2 dcB3AB3AG2  | 
w:  Şen_ o lur  be *  nim  *  gön *  lüm    | 
{z}ABcd cBBA A4 {z}A2{c}BA G2 | {z}AB cdcB BAA8-A2  | 
w:  Vay  *  be nim_ e *  fen *  dim   E *  fen *  dim   |  serv_ *  i  *  bü *  len *  dim    | 
{z}ABcd cBBA A4 {z}A2{c}BA G2 | {z}AB cdcB BAA8-A2  | 
w:  Vay  *  be nim_ e *  fen *  dim   E *  fen *  dim   |  serv_ *  i  *  bü *  len *  dim    | 
|


